X: 1
T: Avenging And Bright
M: 3/4
L: 1/8
R: waltz
K: Bmin
F2 | B2 Bc dB | c2 f3e | dc B3c | A2 F2 F2 |
B2 Bc dB | c2 f3e | dc B2 c2 | B4 c2 |
d2 de fd | c2 A2 F2 | G2 GB AG | F2 D2 A2 |
d2 de fd | cB A2 F2 | GF Ed cB | B6 |
